X: 1
T: Starry Nights Of Shetland, The
M: 3/4
L: 1/8
R: waltz
K: Cmaj
|: G2 | 
e4 c2 | G2 A2 G2 | F6 | B4 A2 | G4 B2 | d4 G2 | e6- | e4 G2 | 
e4 c2 | G2 A2 G2 | F6 | B4 A2 | G3 B de | f2 A2 B2 | c6- | c2 d2 e2 | 
f2 A2 f2 | f2 A2 f2 | e2 G2 e2 | e2 G2 e2 | e2 c2 e2 | g2 f2 e2 | d6- | d4 G2 |
e4 c2 | G2 A2 G2 | F6 | B4 A2 | G2 B2 de | f3 A B2 | c6- | c4 :|
K: Dmaj
|: A2 | 
f4 d2 | A3 B A2 | G4 B2 | c4 B2 | A4 c2 | e4 A2 | f6- | f2 d2 e2 |
f4 d2 | A2 (3BcB A2 | G4 B2 | c4 B2 | A3 c ef | g2 (3BcB c2 | d3 e d2 | d4 ef |
g3 B g2 | g2 B2 g2 | f3 A f2 | f2 A2 f2 | f2 de fd | (3aba (3gag f2 | e3 f e^d | e4 A2 |
f4 d2 | A2 B2 (3ABA | G4 B2 | c4- cB | A2 Ac ef | g2 B2 c2 | d2 de dc | d4 :|
